!!! OTL: Literature65
!!! Chapter: 5
!!! Section: II
!!! Page: 359
!!! Mode: 
!!! Encoder: ESM
**kern
*staff1
*I"Piano
=1-
*clefG2
*k[f#]
*G:
*M6/8
4.r
8r
8r
16dd\LL
16cc\JJ
=2
8.b\L
16cc\K
8b\J
8a/L
8b/
8a/J
=3
[4.g/
4g/]
8g/
=4
8.a/L
16b/K
8a/J
8f#/L
8e/
8f#/J
=5
[4.g/
4g/]
8b\
=6
8a\L
8b\
8cc#\J
8dd/L
8f#/
8b/J
=7
8a/L
8e/
8g/J
4f#/
8b\
=8
8a\L
8b\
8cc#\J
8dd/L
8a/
8f#/J
=9
!!linebreak:original
8g/L
8e/
8a/J
4d/
8cc\
=10
8b/L
8a/
8a/J
8a/L
8g/
8g/J
=11
8f#/L
8e/
8f#/J
4g/
8cc\
=12
8b/L
8a/
8a/J
8a/L
8g/
8g/J
=13
8f#/L
8e/
8f#/J
4g/
8r
==
*-
